X:726
T:»Stäiv lappen» (styva lappen);
S:Jakob Pettersson Gebjänne i Burs har sjungit den så för samlaren.
N:Dansen utföres av en person i ett slags pajas-stil.
O:Gotland, Burs
R:solodans
M:3/4
L:1/16
K:G
(G3B) d4 g4|g3d (d2B2) (B2G2)|G3(B d4) g4|g3d (d2B2) (B2G2)|
Le4 c2cc (c2e2)|Ld4 B2BB (B2d2)|Le4 c2cc (c2e2)|
Ld4 B2BB (B2A2)|(G3B)(d2g2)(d2B2)|(d3c) A4 G4|

